storage/app/icons/phosphoricons/regular/nuclear-plant.svg

<svg xmlns="http://www.w3.org/2000/svg" fill="currentColor" viewBox="0 0 256 256"><path d="M152 32h24a8 8 0 0 0 8-8 8 8 0 0 1 16 0 24 24 0 0 1-24 24h-24a8 8 0 0 0-8 8 8 8 0 0 1-16 0 24 24 0 0 1 24-24m-48 32a8 8 0 0 0 8-8 40 40 0 0 1 40-40h8a8 8 0 0 0 0-16h-8a56.06 56.06 0 0 0-56 56 8 8 0 0 0 8 8m144 152a8 8 0 0 1-8 8H16a8 8 0 0 1 0-16h16.74c13.77-27.83 29.48-68.69 31.12-112.66A15.91 15.91 0 0 1 79.85 80h88.33a16 16 0 0 1 16 15.28c2.1 47.84 23.84 92.37 35.29 112.72H240a8 8 0 0 1 8 8M168.18 96h-16c1.77 43.72 17.39 84.32 31.09 112h18c-12.59-23.92-31.09-66.36-33.09-112M50.5 208h115c-13.5-28.91-27.73-68.91-29.35-112a7.5 7.5 0 0 1-1-.06l-55.3.06c-1.61 43.06-15.79 83.07-29.35 112"/></svg>

<svg xmlns="http://www.w3.org/2000/svg" viewBox="0 0 256 256" fill="currentColor"><path d="M152,32h24a8,8,0,0,0,8-8,8,8,0,0,1,16,0,24,24,0,0,1-24,24H152a8,8,0,0,0-8,8,8,8,0,0,1-16,0A24,24,0,0,1,152,32ZM104,64a8,8,0,0,0,8-8,40,40,0,0,1,40-40h8a8,8,0,0,0,0-16h-8A56.06,56.06,0,0,0,96,56,8,8,0,0,0,104,64ZM248,216a8,8,0,0,1-8,8H16a8,8,0,0,1,0-16H32.74c13.77-27.83,29.48-68.69,31.12-112.66A15.91,15.91,0,0,1,79.85,80h88.33a16,16,0,0,1,16,15.28c2.1,47.84,23.84,92.37,35.29,112.72H240A8,8,0,0,1,248,216ZM168.18,96h-16c1.77,43.72,17.39,84.32,31.09,112h18C188.68,184.08,170.18,141.64,168.18,96ZM50.5,208h115C152,179.09,137.77,139.09,136.15,96a7.46,7.46,0,0,1-1-.06L79.85,96C78.24,139.06,64.06,179.07,50.5,208Z"/></svg>
